shader gammaCorrect (vector value = 0, vector gamma = 0, output vector outValue = 0)
{
	if( gamma[0] > 0.0 )
	{
		outValue[0] = pow(value[0], 1.0 / gamma[0]);
	}
	if( gamma[1] > 0.0 )
	{
		outValue[1] = pow(value[1], 1.0 / gamma[1]);
	}
	if( gamma[2] > 0.0 )
	{
		outValue[2] = pow(value[2], 1.0 / gamma[2]);
	}
}