

surface lambert
(
    vector Normal = N,
    float inDiffuse = 0.8,
    vector inColor = 1.0,
	vector incandescence = 0.0,
	vector transparency = 0.0,
	output closure color outColor = 0	
)
{
	outColor = (inDiffuse * color(inColor) * diffuse(Normal)) + (color(incandescence) * emission()) + (color(transparency) * transparent());		
}
